X: 2288
T: COME TO YOUR TAY
R: Reel.
%R: reel
B: James Kerr "Merry Melodies" v.2 p.31 #288
Z: 2016 John Chambers <jc:trillian.mit.edu>
M: C
L: 1/8
K: D
|:\
vd2dc  A2Bc | d2(de) fdec |\
dedc A2(AB) |=cAGE (ED)D2 ::\
d2(fd) adfd | ceAe   cAeA |
d2(fd) adfd | faag   fdec |\
d2(fd) adfd | c2(ec) gefg |\
abag   fdec | eaag   fdec :|
